modules/hawcons-filled/icons/icon-83-document-forbidden.svg

<?xml version="1.0" encoding="UTF-8" standalone="no"?>
<svg width="32px" height="32px" viewBox="0 0 32 32" version="1.1" xmlns="http://www.w3.org/2000/svg" xmlns:xlink="http://www.w3.org/1999/xlink" xmlns:sketch="http://www.bohemiancoding.com/sketch/ns">
    <!-- Generator: Sketch 3.0.3 (7891) - http://www.bohemiancoding.com/sketch -->
    <title>icon 83 document forbidden</title>
    <desc>Created with Sketch.</desc>
    <defs></defs>
    <g id="Page-1" stroke="none" stroke-width="1" fill="none" fill-rule="evenodd" sketch:type="MSPage">
        <g id="icon-83-document-forbidden" sketch:type="MSArtboardGroup" fill="#929292">
            <path d="M25.7683612,22.0311352 C26.5383938,22.9774896 27,24.1848378 27,25.5 C27,28.5375663 24.5375663,31 21.5,31 C20.1848378,31 18.9774896,30.5383938 18.0311352,29.7683612 L25.7683612,22.0311352 L25.7683612,22.0311352 Z M25.0696389,21.315644 C24.1089449,20.4952991 22.8623141,20 21.5,20 C18.4624337,20 16,22.4624337 16,25.5 C16,26.8623141 16.4952991,28.1089449 17.315644,29.0696389 L25.0696389,21.315644 L25.0696389,21.315644 Z M16.0218178,29 L6.99742191,29 C5.89092539,29 5,28.1012878 5,26.9926701 L5,4.00732994 C5,2.89833832 5.8992496,2 7.0085302,2 L17,2 L17,8.00189865 C17,9.11329365 17.8980806,10 19.0059191,10 L24,10 L24,19.4981633 C23.2304079,19.1772281 22.3859009,19 21.5,19 C17.9101489,19 15,21.9101489 15,25.5 C15,26.7886423 15.3749964,27.9896995 16.0218178,29 L16.0218178,29 L16.0218178,29 Z M18,2 L18,7.99707067 C18,8.55097324 18.4509752,9 18.990778,9 L24,9 L18,2 L18,2 Z" id="document-forbidden" sketch:type="MSShapeGroup"></path>
        </g>
    </g>
</svg>

<svg width="32" height="32" xmlns="http://www.w3.org/2000/svg"><path d="M25.768 22.031a5.5 5.5 0 0 1-7.737 7.737l7.737-7.737zm-.698-.715a5.5 5.5 0 0 0-7.754 7.754l7.754-7.754zM16.022 29H6.997A2 2 0 0 1 5 26.993V4.007C5 2.898 5.9 2 7.009 2H17v6.002C17 9.113 17.898 10 19.006 10H24v9.498A6.5 6.5 0 0 0 16.022 29zM18 2v5.997c0 .554.451 1.003.99 1.003H24l-6-7z" fill="#929292" fill-rule="evenodd"/></svg>
